public/assets/image.svg

<svg xmlns="http://www.w3.org/2000/svg" width="100" height="100" viewBox="0 0 30 30"><path fill="#3498db" d="M4 5c-1.105469 0-2 .894531-2 2v16c0 1.105469.894531 2 2 2h22c1.105469 0 2-.894531 2-2V7c0-1.105469-.894531-2-2-2Zm19 3c1.105469 0 2 .894531 2 2s-.894531 2-2 2-2-.894531-2-2 .894531-2 2-2ZM9 12.003906c.621094 0 1.238281.234375 1.710938.707032l5.445312 5.445312c.421875.421875 1.101562.417969 1.527344-.003906.421875-.421875.421875-1.109375 0-1.53125l-1.152344-1.148438.757812-.761718c.945313-.945313 2.476563-.945313 3.421876 0L25 19v3H5v-7l2.289062-2.289062c.472657-.472657 1.089844-.707032 1.710938-.707032Zm0 0"/></svg>

<?xml version="1.0" encoding="UTF-8"?>
<svg xmlns="http://www.w3.org/2000/svg" xmlns:xlink="http://www.w3.org/1999/xlink" viewBox="0 0 30 30" width="100px" height="100px">
<g id="surface149599">
<path style=" stroke:none;fill-rule:nonzero;fill:rgb(20.392157%,59.607846%,85.882354%);fill-opacity:1;" d="M 4 5 C 2.894531 5 2 5.894531 2 7 L 2 23 C 2 24.105469 2.894531 25 4 25 L 26 25 C 27.105469 25 28 24.105469 28 23 L 28 7 C 28 5.894531 27.105469 5 26 5 Z M 23 8 C 24.105469 8 25 8.894531 25 10 C 25 11.105469 24.105469 12 23 12 C 21.894531 12 21 11.105469 21 10 C 21 8.894531 21.894531 8 23 8 Z M 9 12.003906 C 9.621094 12.003906 10.238281 12.238281 10.710938 12.710938 L 16.15625 18.15625 C 16.578125 18.578125 17.257812 18.574219 17.683594 18.152344 C 18.105469 17.730469 18.105469 17.042969 17.683594 16.621094 L 16.53125 15.472656 L 17.289062 14.710938 C 18.234375 13.765625 19.765625 13.765625 20.710938 14.710938 L 25 19 L 25 22 L 5 22 L 5 15 L 7.289062 12.710938 C 7.761719 12.238281 8.378906 12.003906 9 12.003906 Z M 9 12.003906 "/>
</g>
</svg>
